X:118
T:Brynhyfryd
M:4/2
L:1/2
Q:80
C:Trad.
R:Hymn
K:G
G2 B A | G2 F2 | G>A B G | A2 G>A | B E A G | F2 G2
| G2 B B | A A G G | A2 A2 | G A B c | B G A G | F2 G2 ||
